X:5957
T:Gan ainm
R:Reel
S:
H:
N:
D:Milltown Malbay Concertina Recital
Z:Adrian Scahill
M:4/4
L:1/8
K:G
D2db cEE2|DGBG A3B|cded cAAB|cBAG FADC|\
B,DGB cEGE|DGBG A3B|cded cAAB|1 cADF G3E:|2 cADF G2ge||
d3B c3d|ABBA G3B|cded cAAB|cBAG F2(3ABC|\
d3B c3d|(3ABc dB G2AB|cded cAAB|cADF G2ge:||
